img/header-logo.svg

<svg xmlns="http://www.w3.org/2000/svg" width="6.033cm" height="66.671">
  <path fill="#FFF" fill-rule="evenodd" d="M166.725 32.856v10.409h-5.191V32.856h-4.274V28.57H171v4.286h-4.275zm-16.671 5.205h-4.58v5.204h-5.19V28.57h5.19v5.205h4.58V28.57h5.191v14.695h-5.191v-5.204zm-20.396 5.663c-4.396 0-8.244-2.602-8.244-7.806 0-5.205 3.848-7.807 8.244-7.807 4.397 0 8.244 2.602 8.244 7.807 0 5.204-3.847 7.806-8.244 7.806zm0-11.021c-2.137 0-2.9 1.562-2.9 3.215 0 1.653.763 3.214 2.9 3.214s2.901-1.561 2.901-3.214-.764-3.215-2.901-3.215zm5.283-10.967c-1.619 0-2.81-.582-3.482-1.623-1.404 1.102-3.022 1.776-5.098 1.776-2.809 0-5.099-1.684-5.099-4.531 0-3.704 3.511-4.837 6.35-4.837 1.1 0 2.199.123 3.176.337v-.52c0-1.042-.977-1.837-3.053-1.837-1.924 0-3.695.551-5.13 1.132V7.255c1.222-.397 3.542-.979 5.71-.979 4.671 0 7.663 1.622 7.663 6.857v4.103c0 .704.489.918 1.008.918.184 0 .397-.03.581-.092v3.215c-.703.276-1.649.459-2.626.459zm-4.153-6.123c-.458-.153-1.16-.276-1.863-.276-1.221 0-2.32.429-2.32 1.593 0 .765.672 1.438 1.771 1.438.855 0 1.618-.183 2.412-.765v-1.99zm-16.58 5.817h-5.19V6.735h11.419v4.286h-6.229V21.43zm-17.373-5.786c.58 1.622 2.565 2.265 4.672 2.265 1.649 0 2.992-.245 4.214-.704v3.858c-1.374.49-3.115.826-5.436.826-4.824 0-8.701-2.755-8.701-7.807 0-5.755 4.488-7.806 7.694-7.806 6.29 0 8.183 4.898 7.144 9.368h-9.587zm2.565-5.603c-1.435 0-2.626.949-2.626 2.48h4.916c.153-.704-.213-2.48-2.29-2.48zm-.855 27.438h-9.587c.58 1.622 2.565 2.265 4.671 2.265 1.649 0 2.993-.245 4.214-.704v3.858c-1.374.489-3.114.826-5.435.826-4.824 0-8.701-2.755-8.701-7.806 0-5.756 4.488-7.807 7.694-7.807 6.289 0 8.183 4.898 7.144 9.368zm-7.022-5.602c-1.435 0-2.627.949-2.627 2.479h4.917c.152-.704-.214-2.479-2.29-2.479zm-8.092-21.836l-4.579 7.041h-3.237l-4.58-7.072v11.42h-5.649V0h5.344l6.504 10.041L83.737 0h5.343v21.43h-5.649V10.041zM65.386 32.46v-3.89h4.58v1.99c.733-1.224 2.352-2.449 4.978-2.449 4.915 0 7.083 4.01 7.083 7.807 0 3.796-2.168 7.806-7.083 7.806-2.046 0-3.481-.735-4.367-1.653V50h-5.191V39.82l-5.19-5.204V50H10.329V34.613L3.67 41.29l-3.671-3.68 10.33-10.357V0h49.867v27.256l5.19 5.204zm5.191 5.141a3.299 3.299 0 0 0 2.962 1.837c2.198 0 3.145-1.806 3.145-3.52 0-1.715-.947-3.521-3.145-3.521a3.299 3.299 0 0 0-2.962 1.837v3.367zm-55.058 7.195h39.487V29.412L35.261 9.614 15.519 29.409v15.387zm0-39.592v16.844l16.8-16.844h-16.8zm39.487 0H38.203l.728.73 16.075 16.118V5.204zm55.08 30.193l4.153-6.827h4.794v14.695h-5.069v-7.347l-2.747 4.5h-2.26l-2.748-4.5v7.347h-5.068V28.57h4.793l4.152 6.827z"/>
</svg>

<svg
 xmlns="http://www.w3.org/2000/svg"
 xmlns:xlink="http://www.w3.org/1999/xlink"
 width="6.033cm" height="1.764cm">
<path fill-rule="evenodd"  fill="rgb(255, 255, 255)"
 d="M166.725,32.856 L166.725,43.265 L161.534,43.265 L161.534,32.856 L157.260,32.856 L157.260,28.570 L171.000,28.570 L171.000,32.856 L166.725,32.856 ZM150.054,38.061 L145.474,38.061 L145.474,43.265 L140.284,43.265 L140.284,28.570 L145.474,28.570 L145.474,33.775 L150.054,33.775 L150.054,28.570 L155.245,28.570 L155.245,43.265 L150.054,43.265 L150.054,38.061 ZM129.658,43.724 C125.262,43.724 121.414,41.122 121.414,35.918 C121.414,30.713 125.262,28.111 129.658,28.111 C134.055,28.111 137.902,30.713 137.902,35.918 C137.902,41.122 134.055,43.724 129.658,43.724 ZM129.658,32.703 C127.521,32.703 126.758,34.265 126.758,35.918 C126.758,37.571 127.521,39.132 129.658,39.132 C131.795,39.132 132.559,37.571 132.559,35.918 C132.559,34.265 131.795,32.703 129.658,32.703 ZM134.941,21.736 C133.322,21.736 132.131,21.154 131.459,20.113 C130.055,21.215 128.437,21.889 126.361,21.889 C123.552,21.889 121.262,20.205 121.262,17.358 C121.262,13.654 124.773,12.521 127.612,12.521 C128.712,12.521 129.811,12.644 130.788,12.858 L130.788,12.338 C130.788,11.296 129.811,10.501 127.735,10.501 C125.811,10.501 124.040,11.052 122.605,11.633 L122.605,7.255 C123.827,6.858 126.147,6.276 128.315,6.276 C132.986,6.276 135.978,7.898 135.978,13.133 L135.978,17.236 C135.978,17.940 136.467,18.154 136.986,18.154 C137.170,18.154 137.383,18.124 137.567,18.062 L137.567,21.277 C136.864,21.553 135.918,21.736 134.941,21.736 ZM130.788,15.613 C130.330,15.460 129.628,15.337 128.925,15.337 C127.704,15.337 126.605,15.766 126.605,16.930 C126.605,17.695 127.277,18.368 128.376,18.368 C129.231,18.368 129.994,18.185 130.788,17.603 L130.788,15.613 ZM114.208,21.430 L109.018,21.430 L109.018,6.735 L120.437,6.735 L120.437,11.021 L114.208,11.021 L114.208,21.430 ZM96.835,15.644 C97.415,17.266 99.400,17.909 101.507,17.909 C103.156,17.909 104.499,17.664 105.721,17.205 L105.721,21.063 C104.347,21.553 102.606,21.889 100.285,21.889 C95.461,21.889 91.584,19.134 91.584,14.082 C91.584,8.327 96.072,6.276 99.278,6.276 C105.568,6.276 107.461,11.174 106.422,15.644 L96.835,15.644 ZM99.400,10.041 C97.965,10.041 96.774,10.990 96.774,12.521 L101.690,12.521 C101.843,11.817 101.477,10.041 99.400,10.041 ZM98.545,37.479 L88.958,37.479 C89.538,39.101 91.523,39.744 93.629,39.744 C95.278,39.744 96.622,39.499 97.843,39.040 L97.843,42.898 C96.469,43.387 94.729,43.724 92.408,43.724 C87.584,43.724 83.707,40.969 83.707,35.918 C83.707,30.162 88.195,28.111 91.401,28.111 C97.690,28.111 99.584,33.009 98.545,37.479 ZM91.523,31.877 C90.088,31.877 88.896,32.826 88.896,34.356 L93.813,34.356 C93.965,33.652 93.599,31.877 91.523,31.877 ZM83.431,10.041 L78.852,17.082 L75.615,17.082 L71.035,10.010 L71.035,21.430 L65.386,21.430 L65.386,-0.000 L70.730,-0.000 L77.234,10.041 L83.737,-0.000 L89.080,-0.000 L89.080,21.430 L83.431,21.430 L83.431,10.041 ZM65.386,32.460 L65.386,28.570 L69.966,28.570 L69.966,30.560 C70.699,29.336 72.318,28.111 74.944,28.111 C79.859,28.111 82.027,32.121 82.027,35.918 C82.027,39.714 79.859,43.724 74.944,43.724 C72.898,43.724 71.463,42.989 70.577,42.071 L70.577,50.000 L65.386,50.000 L65.386,39.820 L60.196,34.616 L60.196,44.796 L60.196,50.000 L55.006,50.000 L15.519,50.000 L10.329,50.000 L10.329,44.796 L10.329,34.613 L3.670,41.290 L-0.001,37.610 L10.329,27.253 L10.329,5.204 L10.329,-0.000 L15.519,-0.000 L55.006,-0.000 L60.196,-0.000 L60.196,5.204 L60.196,27.256 L65.386,32.460 ZM70.577,37.601 C71.035,38.550 72.104,39.438 73.539,39.438 C75.737,39.438 76.684,37.632 76.684,35.918 C76.684,34.203 75.737,32.397 73.539,32.397 C72.104,32.397 71.035,33.285 70.577,34.234 L70.577,37.601 ZM15.519,44.796 L55.006,44.796 L55.006,29.412 L35.261,9.614 L15.519,29.409 L15.519,44.796 ZM15.519,5.204 L15.519,22.048 L32.319,5.204 L15.519,5.204 ZM55.006,5.204 L38.203,5.204 L38.931,5.934 L38.931,5.934 L55.006,22.052 L55.006,5.204 ZM110.086,35.397 L114.239,28.570 L119.033,28.570 L119.033,43.265 L113.964,43.265 L113.964,35.918 L111.217,40.418 L108.957,40.418 L106.209,35.918 L106.209,43.265 L101.141,43.265 L101.141,28.570 L105.934,28.570 L110.086,35.397 Z"/>
</svg>
